X:374
T:Wellington's
Z: id:dc-reel-346
M:C
L:1/8
K:G Major
D|G2BG DGBG|A3B cdec|A3B cABG|FADE FGAB|!
G2BG DGBd|cBAB cdef|gedB c2Bc|dBcA BGG:|!
d|g2bg dgbg|g2bg fdde|f2af dfaf|g2bg fddf|!
[1 g2bg dgbg|g2bg fdef|gedB c2Bc|dBcA BGG:|!
[2 g3b a3b|g3a fdef|gedB c2Bc|dBcA BGG|]!

